client/assets/images/customer-home/illustration--secondary-earn.svg

<svg width="201" height="114" viewBox="0 0 201 114" fill="none" xmlns="http://www.w3.org/2000/svg">
<rect x="0.5" y="0.5" width="200" height="113" fill="#fff" stroke="#C3C4C7"/>
<rect x="89" y="77" width="103" height="28" rx="4" fill="#3582C4"/>
<rect x="9.5" y="9.5" width="71" height="95" rx="3.5" fill="#F6F7F7" stroke="#C3C4C7"/>
<rect x="36.75" y="48.75" width="16.5" height="16.5" rx="1.25" stroke="#A7AAAD" stroke-width="1.5"/>
<path d="M37 61L41.5714 57.6667L45 59.8889L49 56L53 59.8889" stroke="#A7AAAD" stroke-width="1.5" stroke-linejoin="round"/>
<rect x="121" y="87" width="56" height="8" fill="#fff"/>
<rect x="89" y="13" width="72" height="12" fill="#646970"/>
<rect x="89" y="33" width="96" height="8" fill="#DCDCDE"/>
<rect x="89" y="45" width="40" height="8" fill="#DCDCDE"/>
<rect x="97.001" y="83" width="16" height="16" rx="8" stroke="#fff" stroke-width="1.5"/>
<path d="M106.75 89.25C106.75 89.6642 107.086 90 107.5 90C107.914 90 108.25 89.6642 108.25 89.25H106.75ZM105 90.25C104.445 90.25 103.974 90.0912 103.662 89.873C103.348 89.6531 103.25 89.4213 103.25 89.25H101.75C101.75 90.0452 102.211 90.6884 102.802 91.1019C103.395 91.517 104.175 91.75 105 91.75V90.25ZM103.25 89.25C103.25 89.0787 103.348 88.8469 103.662 88.627C103.974 88.4088 104.445 88.25 105 88.25V86.75C104.175 86.75 103.395 86.983 102.802 87.3981C102.211 87.8116 101.75 88.4548 101.75 89.25H103.25ZM105 88.25C105.555 88.25 106.026 88.4088 106.338 88.627C106.652 88.8469 106.75 89.0787 106.75 89.25H108.25C108.25 88.4548 107.789 87.8116 107.198 87.3981C106.605 86.983 105.825 86.75 105 86.75V88.25Z" fill="#fff"/>
<path d="M103.25 92.75C103.25 92.3358 102.914 92 102.5 92C102.086 92 101.75 92.3358 101.75 92.75L103.25 92.75ZM105 91.75C105.555 91.75 106.026 91.9088 106.338 92.127C106.652 92.3469 106.75 92.5787 106.75 92.75L108.25 92.75C108.25 91.9548 107.789 91.3116 107.198 90.8981C106.605 90.483 105.825 90.25 105 90.25L105 91.75ZM106.75 92.75C106.75 92.9213 106.652 93.1531 106.338 93.373C106.026 93.5912 105.555 93.75 105 93.75L105 95.25C105.825 95.25 106.605 95.017 107.198 94.6019C107.789 94.1884 108.25 93.5452 108.25 92.75L106.75 92.75ZM105 93.75C104.445 93.75 103.974 93.5912 103.662 93.373C103.348 93.1531 103.25 92.9213 103.25 92.75L101.75 92.75C101.75 93.5452 102.211 94.1884 102.802 94.6019C103.395 95.017 104.175 95.25 105 95.25L105 93.75Z" fill="#fff"/>
<path d="M105.75 95C105.75 94.5858 105.414 94.25 105 94.25C104.586 94.25 104.25 94.5858 104.25 95L105.75 95ZM104.25 95.5C104.25 95.9142 104.586 96.25 105 96.25C105.414 96.25 105.75 95.9142 105.75 95.5L104.25 95.5ZM104.25 95L104.25 95.5L105.75 95.5L105.75 95L104.25 95Z" fill="#fff"/>
<path d="M105.75 86.5C105.75 86.0858 105.414 85.75 105 85.75C104.586 85.75 104.25 86.0858 104.25 86.5L105.75 86.5ZM104.25 87C104.25 87.4142 104.586 87.75 105 87.75C105.414 87.75 105.75 87.4142 105.75 87L104.25 87ZM104.25 86.5L104.25 87L105.75 87L105.75 86.5L104.25 86.5Z" fill="#fff"/>
</svg>

<svg width="201" height="114" fill="none" xmlns="http://www.w3.org/2000/svg"><path fill="#fff" stroke="#C3C4C7" d="M.5.5h200v113H.5z"/><rect x="89" y="77" width="103" height="28" rx="4" fill="#3582C4"/><rect x="9.5" y="9.5" width="71" height="95" rx="3.5" fill="#F6F7F7" stroke="#C3C4C7"/><rect x="36.75" y="48.75" width="16.5" height="16.5" rx="1.25" stroke="#A7AAAD" stroke-width="1.5"/><path d="M37 61l4.571-3.333L45 59.889 49 56l4 3.889" stroke="#A7AAAD" stroke-width="1.5" stroke-linejoin="round"/><path fill="#fff" d="M121 87h56v8h-56z"/><path fill="#646970" d="M89 13h72v12H89z"/><path fill="#DCDCDE" d="M89 33h96v8H89zM89 45h40v8H89z"/><rect x="97.001" y="83" width="16" height="16" rx="8" stroke="#fff" stroke-width="1.5"/><path d="M106.75 89.25a.75.75 0 001.5 0h-1.5zm-1.75 1c-.555 0-1.026-.159-1.338-.377-.314-.22-.412-.452-.412-.623h-1.5c0 .795.461 1.438 1.052 1.852.593.415 1.373.648 2.198.648v-1.5zm-1.75-1c0-.171.098-.403.412-.623.312-.218.783-.377 1.338-.377v-1.5c-.825 0-1.605.233-2.198.648-.591.414-1.052 1.057-1.052 1.852h1.5zm1.75-1c.555 0 1.026.159 1.338.377.314.22.412.452.412.623h1.5c0-.795-.461-1.438-1.052-1.852-.593-.415-1.373-.648-2.198-.648v1.5zM103.25 92.75a.75.75 0 00-1.5 0h1.5zm1.75-1c.555 0 1.026.159 1.338.377.314.22.412.452.412.623h1.5c0-.795-.461-1.438-1.052-1.852-.593-.415-1.373-.648-2.198-.648v1.5zm1.75 1c0 .171-.098.403-.412.623-.312.218-.783.377-1.338.377v1.5c.825 0 1.605-.233 2.198-.648.591-.414 1.052-1.057 1.052-1.852h-1.5zm-1.75 1c-.555 0-1.026-.159-1.338-.377-.314-.22-.412-.452-.412-.623h-1.5c0 .795.461 1.438 1.052 1.852.593.415 1.373.648 2.198.648v-1.5z" fill="#fff"/><path d="M105.75 95a.75.75 0 00-1.5 0h1.5zm-1.5.5a.75.75 0 001.5 0h-1.5zm0-.5v.5h1.5V95h-1.5zM105.75 86.5a.75.75 0 00-1.5 0h1.5zm-1.5.5a.75.75 0 001.5 0h-1.5zm0-.5v.5h1.5v-.5h-1.5z" fill="#fff"/></svg>
